X:163
T:Road to California                                                                                
M:C                                                                                                 
K:D                                                                                                 
L:1/8                                                                                               
FE|D2 DE F2 FE|DEFB A2 D2| dcBA GFED\                                                               
|1 C>D E2 E2 FE:|2 CD E2 D2 z2||                                                                    
B4 G4|BA Bc d4 |1 F3 A ABAG|FE FG AB c2 :|2 ABAG FE DF|EDCE D2 z2||
